app/core/images/bch.svg

<?xml version="1.0" encoding="UTF-8"?>
<svg width="22px" height="22px" viewBox="0 0 22 22" version="1.1" xmlns="http://www.w3.org/2000/svg" xmlns:xlink="http://www.w3.org/1999/xlink">
    <!-- Generator: Sketch 46.2 (44496) - http://www.bohemiancoding.com/sketch -->
    <title>btc-icon</title>
    <desc>Created with Sketch.</desc>
    <defs></defs>
    <g id="Symbols" stroke="none" stroke-width="1" fill="none" fill-rule="evenodd">
        <g id="money" transform="translate(-13.000000, -8.000000)" fill-rule="nonzero" fill="#FFFFFF">
            <g transform="translate(0.276357, 0.000000)" id="btc-icon">
                <g transform="translate(12.723643, 8.000000)">
                    <path d="M13.5642944,10.7447335 C14.2810582,10.2308681 14.7384068,9.45813162 14.7384068,8.59496371 C14.7384068,7.26893831 13.6593279,6.15780375 12.2172991,5.87023228 L12.2172991,4.97933871 C12.2172991,4.67156806 11.9679269,4.42219585 11.6601562,4.42219585 C11.3523856,4.42219585 11.1030134,4.67156806 11.1030134,4.97933871 L11.1030134,5.7956473 L9.84327564,5.7956473 L9.84327564,4.97933871 C9.84327564,4.67156806 9.59390343,4.42219585 9.28613278,4.42219585 C8.97836213,4.42219585 8.72898992,4.67156806 8.72898992,4.97933871 L8.72898992,5.7956473 L7.37857143,5.7956473 C7.07080077,5.7956473 6.82142857,6.04501951 6.82142857,6.35279016 C6.82142857,6.66056081 7.07080077,6.90993302 7.37857143,6.90993302 L8.22643693,6.90993302 L8.22643693,15.0900669 L7.37857143,15.0900669 C7.07080077,15.0900669 6.82142857,15.3394391 6.82142857,15.6472098 C6.82142857,15.9549805 7.07080077,16.2043527 7.37857143,16.2043527 L8.72898996,16.2043527 L8.72898996,17.0206613 C8.72898996,17.3284319 8.97836216,17.5778041 9.28613282,17.5778041 C9.59390347,17.5778041 9.84327567,17.3284319 9.84327567,17.0206613 L9.84327567,16.2043527 L11.1030134,16.2043527 L11.1030134,17.0206613 C11.1030134,17.3284319 11.3523856,17.5778041 11.6601563,17.5778041 C11.9679269,17.5778041 12.2172991,17.3284319 12.2172991,17.0206613 L12.2172991,16.1681937 C13.8900652,15.9550938 15.1785714,14.7260969 15.1785714,13.2419922 C15.1785714,12.1925206 14.5329694,11.2710676 13.5642944,10.7447335 Z M13.6241211,8.59496371 C13.6241211,9.52407921 12.6634487,10.279813 11.4824219,10.279813 L9.58193359,10.279813 L9.34072264,10.279813 L9.34072264,6.90993302 L11.4824219,6.90993302 C12.6634487,6.90993302 13.6241211,7.66584821 13.6241211,8.59496371 Z M11.7025949,15.090067 L9.34072268,15.090067 L9.34072268,11.3940988 L9.58193363,11.3940988 L11.4824219,11.3940988 L11.7025949,11.3940988 C13.0047712,11.3940988 14.0642857,12.2231027 14.0642857,13.2421736 C14.0642857,14.2610631 13.0047712,15.090067 11.7025949,15.090067 Z" id="Shape"></path>
                    <path d="M11,0.70754744 C5.32465121,0.70754744 0.70754744,5.32465125 0.70754744,11 C0.70754744,16.6753488 5.32465121,21.2924526 11,21.2924526 C16.6753488,21.2924526 21.2924526,16.6753488 21.2924526,11 C21.2924526,5.32465121 16.6753488,0.70754744 11,0.70754744 Z M11,20.1781668 C5.93910435,20.1781668 1.82183315,16.0608957 1.82183315,11 C1.82183315,5.93910435 5.93910435,1.82183315 11,1.82183315 C16.0608957,1.82183315 20.1781668,5.93910435 20.1781668,11 C20.1781668,16.0608957 16.0608957,20.1781668 11,20.1781668 Z" id="Shape"></path>
                </g>
            </g>
        </g>
    </g>
</svg>

<svg width="22" height="22" xmlns="http://www.w3.org/2000/svg"><g fill-rule="nonzero" fill="#FFF"><path d="M13.564 10.745c.717-.514 1.174-1.287 1.174-2.15 0-1.326-1.079-2.437-2.52-2.725v-.89a.557.557 0 1 0-1.115 0v.816h-1.26v-.817a.557.557 0 1 0-1.114 0v.817h-1.35a.557.557 0 1 0 0 1.114h.847v8.18H7.38a.557.557 0 1 0 0 1.114h1.35v.817a.557.557 0 1 0 1.114 0v-.817h1.26v.817a.557.557 0 1 0 1.114 0v-.853c1.673-.213 2.962-1.442 2.962-2.926 0-1.05-.646-1.97-1.615-2.497zm.06-2.15c0 .93-.96 1.685-2.142 1.685H9.341V6.91h2.141c1.181 0 2.142.756 2.142 1.685zm-1.921 6.495H9.34v-3.696h2.361c1.303 0 2.362.83 2.362 1.848 0 1.02-1.06 1.848-2.361 1.848z"/><path d="M11 .708C5.325.708.708 5.325.708 11S5.325 21.292 11 21.292 21.292 16.675 21.292 11 16.675.708 11 .708zm0 19.47c-5.06 0-9.178-4.117-9.178-9.178 0-5.06 4.117-9.178 9.178-9.178 5.06 0 9.178 4.117 9.178 9.178 0 5.06-4.117 9.178-9.178 9.178z"/></g></svg>
